Hatter-kde/actions/16/kr_diskusage.svg

<svg xmlns="http://www.w3.org/2000/svg" viewBox="0 0 16 16">
  <defs id="defs3051">
    <style type="text/css" id="current-color-scheme">
      .ColorScheme-Text {
        color:#363636;
      }
      </style>
  </defs>
 <path style="fill:currentColor;fill-opacity:1;stroke:none" 
     d="M 8 2 A 6.00001 6.00001 0 0 0 2 8 A 6.00001 6.00001 0 0 0 8 14 A 6.00001 6.00001 0 0 0 14 8 A 6.00001 6.00001 0 0 0 8 2 z M 8 3 A 5 5 0 0 1 13 8 A 5 5 0 0 1 8 13 A 5 5 0 0 1 3 8 A 5 5 0 0 1 8 3 z M 10 4 C 9.2517204 4 8.6086563 4.4121362 8.265625 5.0175781 A 3 3 0 0 0 8 5 A 3 3 0 0 0 5 8 A 3 3 0 0 0 8 11 A 3 3 0 0 0 11 8 A 3 3 0 0 0 10.986328 7.7324219 C 11.589674 7.3888285 12 6.7467144 12 6 C 12 4.892 11.108 4 10 4 z M 10 5 C 10.554 5 11 5.446 11 6 C 11 6.277 10.885828 6.5282344 10.705078 6.7089844 C 10.618438 6.7951552 10.515951 6.8642262 10.402344 6.9140625 A 1 1 0 0 1 10.380859 6.9238281 C 10.26355 6.9719305 10.135037 7 10 7 C 9.4473317 7 9.0021371 6.5560546 9 6.0039062 A 1 1 0 0 1 9 6 C 9 5.8628317 9.0285723 5.7301244 9.078125 5.6113281 A 1 1 0 0 1 9.078125 5.609375 C 9.1282357 5.4905055 9.203479 5.3829463 9.2929688 5.2929688 C 9.4737187 5.1122188 9.723 5 10 5 z M 8 6 C 8 7.108 8.892 8 10 8 A 2 2 0 0 1 8 10 A 2 2 0 0 1 6 8 A 2 2 0 0 1 8 6 z "
     class="ColorScheme-Text"
     />
</svg>

<?xml version="1.0" encoding="UTF-8"?>
<svg viewBox="0 0 16 16" xmlns="http://www.w3.org/2000/svg">
 <defs id="defs3051">
  <style id="current-color-scheme" type="text/css">.ColorScheme-Text {
        color:#363636;
      }</style>
 </defs>
 <path class="ColorScheme-Text" d="m8 2a6 6 0 0 0-6 6 6 6 0 0 0 6 6 6 6 0 0 0 6-6 6 6 0 0 0-6-6zm0 1a5 5 0 0 1 5 5 5 5 0 0 1-5 5 5 5 0 0 1-5-5 5 5 0 0 1 5-5zm2 1c-0.74828 0-1.3913 0.41214-1.7344 1.0176a3 3 0 0 0-0.26562-0.017578 3 3 0 0 0-3 3 3 3 0 0 0 3 3 3 3 0 0 0 3-3 3 3 0 0 0-0.013672-0.26758c0.60335-0.34359 1.0137-0.98571 1.0137-1.7324 0-1.108-0.892-2-2-2zm0 1c0.554 0 1 0.446 1 1 0 0.277-0.11417 0.52823-0.29492 0.70898-0.08664 0.086171-0.18913 0.15524-0.30273 0.20508a1 1 0 0 1-0.021485 0.0097656c-0.11731 0.048102-0.24582 0.076172-0.38086 0.076172-0.55267 0-0.99786-0.44395-1-0.99609a1 1 0 0 1 0-0.0039062c0-0.13717 0.028572-0.26988 0.078125-0.38867a1 1 0 0 1 0-0.0019531c0.050111-0.11887 0.12535-0.22643 0.21484-0.31641 0.18075-0.18075 0.43003-0.29297 0.70703-0.29297zm-2 1c0 1.108 0.892 2 2 2a2 2 0 0 1-2 2 2 2 0 0 1-2-2 2 2 0 0 1 2-2z" fill="currentColor"/>
</svg>
